X:1
T:Title
%%score { ( 1 3 4 ) | ( 2 5 ) }
L:1/8
Q:1/4=100
M:6/8
K:Ab
V:1 treble nm="Grand Piano"
V:3 treble 
V:4 treble 
V:2 bass 
V:5 bass 
V:1
 E3 C2 E | A3 E2 A | c>BA GAB | [CEA]3 [A,CE]3 | B3 F2 d | B3 F2 d | B>BB =dc[Ad] | %7
w: Mrs.~C.~H.~Morris * *|||||||
 [Ge]3[K:bass] z3 | A3 E2 A | c3 A2 c | e>dc [GB][FA][GB] | [Ac]3 [Ae]3 | [Af]3 [Fd]2 [Af] | %13
w: ||||||
 e3 c2 A | [Ae]>[Ed][Ec] [=DB][DF]G | [CA]6 | z3 z =de | [df]2 [ce] [Ac]3 | z3 z _c=c | %19
w: ||||||
 [Fd]2 [Ec] [CA]3 | z3 z .G2 | .[Ac]6 | z3 z Fc | [EB]3 [Ge]3 | [ce]3- [ce]=de | [df]2 [ce] [Ac]3 | %26
w: |||||||
 .[Ec]6 | [Fd]2 [Ec] [CA]3 | .[Fd]6 | .[Ae]6 | [GB]3 [Ge]2 [Ge] | [EA]6 |] %32
w: ||||||
V:2
 E,3 C,2 E, | A,3 E,2 A, | [A,EA]>[A,DG][K:bass][A,CE] [E,B,E][E,CE][E,DE] | A,,3 A,,3 | %4
 B,3 F,2 D | B,3 F,2[K:treble] D | [B,=DA]>[B,DA][B,DA] [B,FA][B,FA][K:bass][B,,B,] | .[E,B,]3 z3 | %8
 A,3 E,2 A, | C3 A,2[K:treble] C | [A,CA]>[A,FA][A,EA][K:bass] [E,E][E,E][E,E] | [A,E]3 [A,C]3 | %12
 [D,D]3 [D,A,]2 [D,D] | [A,CA]3 [A,EA]2[K:bass] [A,C] | [E,C]>[E,B,][E,A,] [B,,A,][B,,A,][E,D] | %15
 [A,,E,]6 | .[A,E]3 z[K:treble] _c=c | .[A,E]3 .[E,E]3 | .[A,,A,]3 z =DE | .[A,,A,]3 .[A,,E,]3 | %20
 .[F,C]3 z[K:treble] FF | .F,3 z[K:treble] FC | .[B,,F,]3 z =DD | .[E,G,]3 .[E,B,]3 | %24
 A,A,A, z[K:treble] _c=c | [A,,A,][A,,A,][A,,A,] .[A,,A,]3 | [A,,A,]A,,A,, z =DE | %27
 [A,,A,][A,,A,][A,,A,] .[A,,A,]3 | [D,A,]D,D, D,[D,D][D,D] | [A,C]A,A, A,[K:treble][A,EA][A,CE] | %30
 [E,E]3 [E,D]2 [E,D] | [A,C]6 |] %32
V:3
 x6 | x6 | x6 | x6 | x6 | x6 | x6 | z[K:bass] F,E, D,C,B,, | x6 | x6 | x6 | x6 | x6 | x6 | x6 | %15
 x6 | .[ce]6 | x6 | .[Ec]6 | x6 | .[FA]6 | .C3 z AF | .[=DB]6 | x6 | x6 | x6 | z A,A, z _c=c | x6 | %28
 z A,A, A,[Ge][Af] | z CC CcA | x6 | x6 |] %32
V:4
 x6 | x6 | x6 | x6 | x6 | x6 | x6 | x[K:bass] x5 | x6 | x6 | x6 | x6 | x6 | x6 | x6 | x6 | z3 .E3 | %17
 x6 | z3 .E,3 | x6 | z3 .C3 | z3 .C3 | z3 .A,3 | x6 | x6 | x6 | z3 .A,3 | x6 | x6 | x6 | x6 | x6 |] %32
V:5
 x6 | x6 | x2[K:bass] x4 | x6 | x6 | x5[K:treble] x | x5[K:bass] x | x6 | x6 | x5[K:treble] x | %10
 x3[K:bass] x3 | x6 | x6 | x5[K:bass] x | x6 | x6 | z3 .E,3[K:treble] | x6 | z3 .A,,3 | x6 | %20
 z3 .C,3[K:treble] | z3 .C,3[K:treble] | z3 .B,,3 | x6 | z3 .A,3[K:treble] | x6 | z3 .A,,3 | x6 | %28
 x6 | x4[K:treble] x2 | x6 | x6 |] %32

